src/assets/icons/Matrix/Rotador/matrix9_b.svg

<?xml version="1.0" encoding="UTF-8"?>
<svg id="Capa_2" data-name="Capa 2" xmlns="http://www.w3.org/2000/svg" viewBox="0 0 38.75 1.64">
  <defs>
    <style>
      .cls-1 {
        fill: none;
        stroke: #000;
        stroke-linecap: round;
        stroke-linejoin: round;
        stroke-width: .05px;
      }
    </style>
  </defs>
  <g id="Capa_1-2" data-name="Capa 1">
    <g>
      <polyline class="cls-1" points="19.55 .9 19.55 1.02 19.55 1.05 19.58 1.05 19.58 1.08 19.61 1.08 20.45 1.08 20.48 1.08 20.48 1.11 20.48 1.32 20.48 1.35 20.48 1.38 20.45 1.38 20.45 1.41 20.42 1.41 20.42 1.44 20.39 1.44 20.36 1.44"/>
      <polyline class="cls-1" points="19.37 1.14 19.37 1.2 19.41 1.23 19.44 1.23 20.25 1.23 20.25 1.32 20.28 1.35 20.28 1.38 20.3 1.41 20.33 1.44 20.36 1.44"/>
      <polyline class="cls-1" points="19.04 .87 19.04 .98 19.04 1.02 19.01 1.02 19.01 1.05 18.98 1.05 10.7 1.05 10.67 1.05 10.64 1.05 10.64 1.08 10.64 1.29 10.64 1.32 10.67 1.32 10.7 1.32 10.85 1.32 10.88 1.35 10.91 1.35 10.91 1.38 10.91 1.59 10.91 1.62 10.88 1.62 10.85 1.62 10.19 1.62 10.16 1.62 10.13 1.62 10.13 1.59 10.13 1.38 10.13 1.35 10.16 1.35 10.19 1.32 10.41 1.32 10.44 1.32 10.47 1.32 10.47 1.29 10.47 1.08 10.47 1.05 10.44 1.05 10.41 1.05 3.8 1.05"/>
      <polyline class="cls-1" points="2.78 .87 2.78 .98 2.78 1.02 2.75 1.05 2.54 1.05 2.51 1.05 2.51 1.08 2.48 1.08 2.48 1.59 2.48 1.62 2.45 1.62 2.33 1.62 .05 1.62 .03 1.62 .03 1.59 .03 1.5 .03 1.47 .05 1.47 .05 1.44 .23 1.44 .56 1.44 .59 1.47 .59 1.44 2.28 1.44 2.3 1.44 2.3 1.41 2.33 1.41 2.33 1.08 2.3 1.08 2.3 1.05 2.28 1.05 1.44 1.05 1.41 1.02 1.41 .98"/>
      <line class="cls-1" x1="1.82" y1=".87" x2="2.39" y2=".87"/>
      <line class="cls-1" x1="3.8" y1=".87" x2="18.66" y2=".87"/>
      <path class="cls-1" d="m3.26.43c-.04-.21-.2-.37-.4-.4-.21-.04-.41.06-.51.24-.1.18-.08.41.05.57"/>
      <path class="cls-1" d="m3.08.46c-.03-.16-.18-.28-.35-.26-.17.02-.29.16-.28.33,0,.17.15.3.31.3"/>
      <path class="cls-1" d="m19.52.53c0-.22-.14-.42-.35-.48s-.44.02-.56.2c-.12.18-.11.43.04.59"/>
      <path class="cls-1" d="m19.34.52c0-.17-.14-.31-.31-.32s-.31.14-.32.31c0,.17.13.32.31.32"/>
      <path class="cls-1" d="m3.3.43c.04.24.25.41.49.41"/>
      <path class="cls-1" d="m3.13.46c.06.32.34.56.66.56"/>
      <line class="cls-1" x1="19.55" y1=".9" x2="19.55" y2=".54"/>
      <line class="cls-1" x1="19.37" y1="1.14" x2="19.37" y2=".54"/>
      <path class="cls-1" d="m1.47.7c.09.09.21.14.34.14"/>
      <path class="cls-1" d="m1.45.7s-.03-.02-.05,0c-.02,0-.03.02-.03.04"/>
      <line class="cls-1" x1="1.41" y1=".98" x2="1.41" y2=".75"/>
      <polyline class="cls-1" points="37.76 .9 37.76 1.02 37.76 1.05 37.79 1.05 37.82 1.08 38.66 1.08 38.69 1.08 38.72 1.11 38.72 1.32 38.72 1.35 38.69 1.35 38.69 1.38 38.66 1.41 38.63 1.44 38.6 1.44"/>
      <polyline class="cls-1" points="37.58 1.14 37.58 1.2 37.61 1.2 37.61 1.23 37.64 1.23 38.48 1.23 38.48 1.32 38.48 1.35 38.48 1.38 38.51 1.38 38.51 1.41 38.54 1.41 38.54 1.44 38.57 1.44 38.6 1.44"/>
      <polyline class="cls-1" points="37.25 1.05 28.91 1.05 28.88 1.05 28.88 1.08 28.85 1.08 28.85 1.29 28.85 1.32 28.88 1.32 28.91 1.32 29.09 1.32 29.09 1.35 29.12 1.35 29.12 1.38 29.12 1.59 29.12 1.62 29.09 1.62 28.41 1.62 28.37 1.62 28.37 1.59 28.34 1.59 28.34 1.38 28.37 1.38 28.37 1.35 28.41 1.35 28.41 1.32 28.64 1.32 28.67 1.32 28.67 1.29 28.67 1.08 28.67 1.05 28.64 1.05 22.01 1.05"/>
      <polyline class="cls-1" points="21.03 .87 21.03 .98 21 .98 21 1.02 21 1.05 20.97 1.05 20.75 1.05 20.72 1.05 20.72 1.08 20.72 1.59 20.72 1.62 20.69 1.62 20.66 1.62 20.54 1.62 18.29 1.62 18.26 1.62 18.23 1.62 18.23 1.59 18.23 1.5 18.23 1.47 18.26 1.47 18.26 1.44 18.29 1.44 18.44 1.44 18.78 1.44 18.8 1.47 18.83 1.44 20.48 1.44 20.51 1.44 20.54 1.44 20.54 1.41 20.54 1.08 20.51 1.05 20.48 1.05 19.67 1.05 19.64 1.05 19.64 1.02 19.61 1.02 19.61 .98"/>
      <line class="cls-1" x1="20.03" y1=".87" x2="20.63" y2=".87"/>
      <line class="cls-1" x1="22.01" y1=".87" x2="36.89" y2=".87"/>
      <path class="cls-1" d="m21.5.43c-.04-.21-.2-.37-.4-.4-.21-.04-.41.06-.51.24-.1.18-.08.41.05.57"/>
      <path class="cls-1" d="m21.32.46c-.03-.16-.18-.28-.35-.26-.17.02-.29.16-.28.33,0,.17.15.3.31.3"/>
      <path class="cls-1" d="m37.73.53c0-.22-.14-.42-.35-.48-.21-.06-.44.02-.56.2-.12.18-.11.43.04.59"/>
      <path class="cls-1" d="m37.55.52c0-.17-.14-.31-.31-.32s-.31.14-.32.31c0,.17.13.32.31.32"/>
      <path class="cls-1" d="m21.51.43c.04.24.25.41.49.41"/>
      <path class="cls-1" d="m21.34.46c.06.32.34.56.66.56"/>
      <line class="cls-1" x1="37.76" y1=".9" x2="37.76" y2=".54"/>
      <line class="cls-1" x1="37.25" y1=".87" x2="37.25" y2="1.05"/>
      <line class="cls-1" x1="37.58" y1="1.14" x2="37.58" y2=".54"/>
      <path class="cls-1" d="m19.68.7c.09.09.21.14.34.14"/>
      <path class="cls-1" d="m19.69.7s-.03-.02-.05,0c-.02,0-.03.02-.03.04"/>
      <line class="cls-1" x1="19.61" y1=".98" x2="19.61" y2=".75"/>
    </g>
  </g>
</svg>

<?xml version="1.0" encoding="UTF-8" standalone="no"?>
<svg
   id="Capa_2"
   data-name="Capa 2"
   viewBox="0 0 20.5 1.6487162"
   version="1.1"
   sodipodi:docname="matrix9_b.svg"
   width="20.5"
   height="1.6487162"
   inkscape:version="1.3.2 (091e20e, 2023-11-25, custom)"
   xmlns:inkscape="http://www.inkscape.org/namespaces/inkscape"
   xmlns:sodipodi="http://sodipodi.sourceforge.net/DTD/sodipodi-0.dtd"
   xmlns="http://www.w3.org/2000/svg"
   xmlns:svg="http://www.w3.org/2000/svg">
  <sodipodi:namedview
     id="namedview24"
     pagecolor="#ffffff"
     bordercolor="#000000"
     borderopacity="0.25"
     inkscape:showpageshadow="2"
     inkscape:pageopacity="0.0"
     inkscape:pagecheckerboard="0"
     inkscape:deskcolor="#d1d1d1"
     inkscape:zoom="52.877419"
     inkscape:cx="21.75787"
     inkscape:cy="0.7659224"
     inkscape:window-width="2560"
     inkscape:window-height="1369"
     inkscape:window-x="-8"
     inkscape:window-y="-8"
     inkscape:window-maximized="1"
     inkscape:current-layer="g24" />
  <defs
     id="defs1">
    <style
       id="style1">
      .cls-1 {
        fill: none;
        stroke: #000;
        stroke-linecap: round;
        stroke-linejoin: round;
        stroke-width: .05px;
      }
    </style>
  </defs>
  <g
     id="Capa_1-2"
     data-name="Capa 1"
     transform="translate(-0.005,0.00371618)">
    <g
       id="g24">
      <polyline
         class="cls-1"
         points="19.55 .9 19.55 1.02 19.55 1.05 19.58 1.05 19.58 1.08 19.61 1.08 20.45 1.08 20.48 1.08 20.48 1.11 20.48 1.32 20.48 1.35 20.48 1.38 20.45 1.38 20.45 1.41 20.42 1.41 20.42 1.44 20.39 1.44 20.36 1.44"
         id="polyline1" />
      <polyline
         class="cls-1"
         points="19.37 1.14 19.37 1.2 19.41 1.23 19.44 1.23 20.25 1.23 20.25 1.32 20.28 1.35 20.28 1.38 20.3 1.41 20.33 1.44 20.36 1.44"
         id="polyline2" />
      <polyline
         class="cls-1"
         points="19.04 .87 19.04 .98 19.04 1.02 19.01 1.02 19.01 1.05 18.98 1.05 10.7 1.05 10.67 1.05 10.64 1.05 10.64 1.08 10.64 1.29 10.64 1.32 10.67 1.32 10.7 1.32 10.85 1.32 10.88 1.35 10.91 1.35 10.91 1.38 10.91 1.59 10.91 1.62 10.88 1.62 10.85 1.62 10.19 1.62 10.16 1.62 10.13 1.62 10.13 1.59 10.13 1.38 10.13 1.35 10.16 1.35 10.19 1.32 10.41 1.32 10.44 1.32 10.47 1.32 10.47 1.29 10.47 1.08 10.47 1.05 10.44 1.05 10.41 1.05 3.8 1.05"
         id="polyline3" />
      <polyline
         class="cls-1"
         points="2.78 .87 2.78 .98 2.78 1.02 2.75 1.05 2.54 1.05 2.51 1.05 2.51 1.08 2.48 1.08 2.48 1.59 2.48 1.62 2.45 1.62 2.33 1.62 .05 1.62 .03 1.62 .03 1.59 .03 1.5 .03 1.47 .05 1.47 .05 1.44 .23 1.44 .56 1.44 .59 1.47 .59 1.44 2.28 1.44 2.3 1.44 2.3 1.41 2.33 1.41 2.33 1.08 2.3 1.08 2.3 1.05 2.28 1.05 1.44 1.05 1.41 1.02 1.41 .98"
         id="polyline4" />
      <line
         class="cls-1"
         x1="1.8200001"
         y1="0.87"
         x2="2.3900001"
         y2="0.87"
         id="line4" />
      <line
         class="cls-1"
         x1="3.8"
         y1="0.87"
         x2="18.66"
         y2="0.87"
         id="line5" />
      <path
         class="cls-1"
         d="M 3.26,0.43 C 3.22,0.22 3.06,0.06 2.86,0.03 2.65,-0.01 2.45,0.09 2.35,0.27 2.25,0.45 2.27,0.68 2.4,0.84"
         id="path5" />
      <path
         class="cls-1"
         d="M 3.08,0.46 C 3.05,0.3 2.9,0.18 2.73,0.2 2.56,0.22 2.44,0.36 2.45,0.53 c 0,0.17 0.15,0.3 0.31,0.3"
         id="path6" />
      <path
         class="cls-1"
         d="m 19.52,0.53 c 0,-0.22 -0.14,-0.42 -0.35,-0.48 -0.21,-0.06 -0.44,0.02 -0.56,0.2 -0.12,0.18 -0.11,0.43 0.04,0.59"
         id="path7" />
      <path
         class="cls-1"
         d="m 19.34,0.52 c 0,-0.17 -0.14,-0.31 -0.31,-0.32 -0.17,-0.01 -0.31,0.14 -0.32,0.31 0,0.17 0.13,0.32 0.31,0.32"
         id="path8" />
      <path
         class="cls-1"
         d="M 3.3,0.43 C 3.34,0.67 3.55,0.84 3.79,0.84"
         id="path9" />
      <path
         class="cls-1"
         d="M 3.13,0.46 C 3.19,0.78 3.47,1.02 3.79,1.02"
         id="path10" />
      <line
         class="cls-1"
         x1="19.549999"
         y1="0.89999998"
         x2="19.549999"
         y2="0.54000002"
         id="line10" />
      <line
         class="cls-1"
         x1="19.370001"
         y1="1.14"
         x2="19.370001"
         y2="0.54000002"
         id="line11" />
      <path
         class="cls-1"
         d="M 1.47,0.7 C 1.56,0.79 1.68,0.84 1.81,0.84"
         id="path11" />
      <path
         class="cls-1"
         d="m 1.45,0.7 c 0,0 -0.03,-0.02 -0.05,0 -0.02,0 -0.03,0.02 -0.03,0.04"
         id="path12" />
      <line
         class="cls-1"
         x1="1.41"
         y1="0.98000002"
         x2="1.41"
         y2="0.75"
         id="line12" />
    </g>
  </g>
</svg>
